static/dashboard.svg

<?xml version="1.0" encoding="utf-8"?><!-- Uploaded to: SVG Repo, www.svgrepo.com, Generator: SVG Repo Mixer Tools -->
<svg width="800px" height="800px" viewBox="0 -0.5 25 25" fill="none" xmlns="http://www.w3.org/2000/svg">
<path d="M9.5 5.75C9.91421 5.75 10.25 5.41421 10.25 5C10.25 4.58579 9.91421 4.25 9.5 4.25V5.75ZM4.75 11C4.75 11.4142 5.08579 11.75 5.5 11.75C5.91421 11.75 6.25 11.4142 6.25 11H4.75ZM9.5 4.25C9.08579 4.25 8.75 4.58579 8.75 5C8.75 5.41421 9.08579 5.75 9.5 5.75V4.25ZM18.75 11C18.75 11.4142 19.0858 11.75 19.5 11.75C19.9142 11.75 20.25 11.4142 20.25 11H18.75ZM10.25 5C10.25 4.58579 9.91421 4.25 9.5 4.25C9.08579 4.25 8.75 4.58579 8.75 5H10.25ZM8.75 11C8.75 11.4142 9.08579 11.75 9.5 11.75C9.91421 11.75 10.25 11.4142 10.25 11H8.75ZM9.5 11.75C9.91421 11.75 10.25 11.4142 10.25 11C10.25 10.5858 9.91421 10.25 9.5 10.25V11.75ZM5.5 10.25C5.08579 10.25 4.75 10.5858 4.75 11C4.75 11.4142 5.08579 11.75 5.5 11.75V10.25ZM9.5 10.25C9.08579 10.25 8.75 10.5858 8.75 11C8.75 11.4142 9.08579 11.75 9.5 11.75V10.25ZM19.5 11.75C19.9142 11.75 20.25 11.4142 20.25 11C20.25 10.5858 19.9142 10.25 19.5 10.25V11.75ZM6.25 11C6.25 10.5858 5.91421 10.25 5.5 10.25C5.08579 10.25 4.75 10.5858 4.75 11H6.25ZM20.25 11C20.25 10.5858 19.9142 10.25 19.5 10.25C19.0858 10.25 18.75 10.5858 18.75 11H20.25ZM9.5 4.25C6.87665 4.25 4.75 6.37665 4.75 9H6.25C6.25 7.20507 7.70507 5.75 9.5 5.75V4.25ZM4.75 9V11H6.25V9H4.75ZM9.5 5.75H15.5V4.25H9.5V5.75ZM15.5 5.75C17.2949 5.75 18.75 7.20507 18.75 9H20.25C20.25 6.37665 18.1234 4.25 15.5 4.25V5.75ZM18.75 9V11H20.25V9H18.75ZM8.75 5V11H10.25V5H8.75ZM9.5 10.25H5.5V11.75H9.5V10.25ZM9.5 11.75H19.5V10.25H9.5V11.75ZM4.75 11V15H6.25V11H4.75ZM4.75 15C4.75 17.6234 6.87665 19.75 9.5 19.75V18.25C7.70507 18.25 6.25 16.7949 6.25 15H4.75ZM9.5 19.75H15.5V18.25H9.5V19.75ZM15.5 19.75C18.1234 19.75 20.25 17.6234 20.25 15H18.75C18.75 16.7949 17.2949 18.25 15.5 18.25V19.75ZM20.25 15V11H18.75V15H20.25Z" fill="#000000"/>
</svg>

<svg xmlns="http://www.w3.org/2000/svg" width="800" height="800" fill="none" viewBox="0 -0.5 25 25"><path fill="currentColor" d="M9.5 5.75a.75.75 0 0 0 0-1.5zM4.75 11a.75.75 0 0 0 1.5 0zM9.5 4.25a.75.75 0 0 0 0 1.5zM18.75 11a.75.75 0 0 0 1.5 0zm-8.5-6a.75.75 0 0 0-1.5 0zm-1.5 6a.75.75 0 0 0 1.5 0zm.75.75a.75.75 0 0 0 0-1.5zm-4-1.5a.75.75 0 0 0 0 1.5zm4 0a.75.75 0 0 0 0 1.5zm10 1.5a.75.75 0 0 0 0-1.5zM6.25 11a.75.75 0 0 0-1.5 0zm14 0a.75.75 0 0 0-1.5 0zM9.5 4.25A4.75 4.75 0 0 0 4.75 9h1.5c0-1.8 1.46-3.25 3.25-3.25zM4.75 9v2h1.5V9zM9.5 5.75h6v-1.5h-6zm6 0c1.8 0 3.25 1.46 3.25 3.25h1.5a4.75 4.75 0 0 0-4.75-4.75zM18.75 9v2h1.5V9zm-10-4v6h1.5V5zm.75 5.25h-4v1.5h4zm0 1.5h10v-1.5h-10zM4.75 11v4h1.5v-4zm0 4a4.75 4.75 0 0 0 4.75 4.75v-1.5A3.25 3.25 0 0 1 6.25 15zm4.75 4.75h6v-1.5h-6zm6 0A4.75 4.75 0 0 0 20.25 15h-1.5c0 1.8-1.46 3.25-3.25 3.25zM20.25 15v-4h-1.5v4z"/></svg>
